src/android-car.svg

<?xml version="1.0" encoding="utf-8"?>
<!-- Generated by IcoMoon.io -->
<!DOCTYPE svg PUBLIC "-//W3C//DTD SVG 1.1//EN" "http://www.w3.org/Graphics/SVG/1.1/DTD/svg11.dtd">
<svg version="1.1" xmlns="http://www.w3.org/2000/svg" xmlns:xlink="http://www.w3.org/1999/xlink" width="512" height="512" viewBox="0 0 512 512">
<path fill="#000000" d="M403.208 117.333c-4.271-12.802-16-21.333-29.875-21.333h-234.666c-13.875 0-25.604 8.531-29.875 21.333l-44.792 117.334v160c0 11.729 9.604 21.333 21.333 21.333h21.334c11.729 0 21.333-9.604 21.333-21.333v-10.667h256v10.667c0 11.729 9.604 21.333 21.333 21.333h21.334c11.729 0 21.333-9.604 21.333-21.333v-160l-44.792-117.334zM138.667 320c-18.125 0-32-13.865-32-32s13.875-32 32-32 32 13.866 32 32-13.875 32-32 32zM373.333 320c-18.125 0-32-13.865-32-32s13.875-32 32-32 32 13.866 32 32-13.875 32-32 32zM106.667 213.333l32-85.333h234.666l32 85.333h-298.666z"></path>
</svg>

<?xml version="1.0" encoding="utf-8"?>
<!-- Generator: Adobe Illustrator 16.2.1, SVG Export Plug-In . SVG Version: 6.00 Build 0)  -->
<!DOCTYPE svg PUBLIC "-//W3C//DTD SVG 1.1//EN" "http://www.w3.org/Graphics/SVG/1.1/DTD/svg11.dtd">
<svg version="1.1" id="Layer_1" xmlns="http://www.w3.org/2000/svg" xmlns:xlink="http://www.w3.org/1999/xlink" x="0px" y="0px"
	 width="512px" height="512px" viewBox="0 0 512 512" enable-background="new 0 0 512 512" xml:space="preserve">
<g id="Icon_15_">
	<g>
		<path d="M403.208,117.333c-4.271-12.802-16-21.333-29.875-21.333H138.667c-13.875,0-25.604,8.531-29.875,21.333L64,234.667v160
			C64,406.396,73.604,416,85.333,416h21.334c11.729,0,21.333-9.604,21.333-21.333V384h256v10.667
			c0,11.729,9.604,21.333,21.333,21.333h21.334c11.729,0,21.333-9.604,21.333-21.333v-160L403.208,117.333z M138.667,320
			c-18.125,0-32-13.865-32-32s13.875-32,32-32s32,13.866,32,32S156.792,320,138.667,320z M373.333,320c-18.125,0-32-13.865-32-32
			s13.875-32,32-32s32,13.866,32,32S391.458,320,373.333,320z M106.667,213.333l32-85.333h234.666l32,85.333H106.667z"/>
	</g>
</g>
</svg>
